X:12901
T:Pat Boyle of Glencolumkill
R:reel
C:Ed Reavy
M:2/2
L:1/8
Z:Joe Reavy
N:Ed met many fiddlers through the years, 
N:but Pat was special. He came to Corktown 
N:early in the century and encouraged 
N:young Irish musicians who settled there. Some of 
N:Ed's best compositions were 
N:inspired by the playing of Pat Boyle.
K:D
DEFG A=cBd|=cAG=F EC (3CBC|DE^FG A=cBd|=cAGE (3DED D^C|
DEFG A=cBd|=cAG=F EC (3CB,C|DE^FG A=cBd|=cAGE (3DED DA|
def^g (3aga fd|cdef g2 ec|def^g (3aga fd|cA=GE FDDc|
def^g (3aga fd|cdef g2 Bc|dfe=g fdcA|GBAG (3FGF (3EFE||
